Ontario/build/img/social/behance.svg

<svg xmlns="http://www.w3.org/2000/svg" width="16" height="10"><style/><g id="Header"><g id="social_buttons"><path id="behance" d="M0 0h4.67c1.89 0 3.17.67 3.17 2.52 0 .98-.49 1.66-1.35 2.07 1.21.35 1.82 1.28 1.82 2.52 0 2.01-1.71 2.88-3.5 2.88H0V0zm1.99 4.08h2.4c.77 0 1.34-.35 1.34-1.18 0-.95-.73-1.14-1.5-1.14H1.99v2.32zm0 4.21h2.53c.86 0 1.61-.28 1.61-1.31 0-1.01-.64-1.41-1.57-1.41H1.99v2.72zm8.94-1.32c.05 1.25.67 1.63 1.76 1.63.8 0 1.44-.14 1.56-.59h1.74c-.56 1.7-1.74 2.08-3.37 2.08-2.26 0-3.66-1.56-3.66-3.78 0-2.16 1.48-3.8 3.66-3.8 2.45 0 3.63 2.25 3.49 4.46h-5.18zm3.21-1.07c-.18-1-.61-1.9-1.57-1.9-1.25 0-1.61 1.35-1.64 1.9h3.21zm.82-3.91H10V.97h4.96v1.02z" fill="#fff"/></g></g></svg>

<svg xmlns="http://www.w3.org/2000/svg" viewBox="0 0 16 10" width="16" height="10">
	<style>
		tspan { white-space:pre }
		.shp0 { fill: #ffffff } 
	</style>
	<g id="Header">
		<g id="social_buttons">
			<path id="behance" class="shp0" d="M0 0L4.67 0C6.56 0 7.84 0.67 7.84 2.52C7.84 3.5 7.35 4.18 6.49 4.59C7.7 4.94 8.31 5.87 8.31 7.11C8.31 9.12 6.6 9.99 4.81 9.99L0 9.99L0 0ZM1.99 4.08L4.39 4.08C5.16 4.08 5.73 3.73 5.73 2.9C5.73 1.95 5 1.76 4.23 1.76L1.99 1.76L1.99 4.08ZM1.99 8.29L4.52 8.29C5.38 8.29 6.13 8.01 6.13 6.98C6.13 5.97 5.49 5.57 4.56 5.57L1.99 5.57L1.99 8.29ZM10.93 6.97C10.98 8.22 11.6 8.6 12.69 8.6C13.49 8.6 14.13 8.46 14.25 8.01L15.99 8.01C15.43 9.71 14.25 10.09 12.62 10.09C10.36 10.09 8.96 8.53 8.96 6.31C8.96 4.15 10.44 2.51 12.62 2.51C15.07 2.51 16.25 4.76 16.11 6.97L10.93 6.97ZM14.14 5.9C13.96 4.9 13.53 4 12.57 4C11.32 4 10.96 5.35 10.93 5.9L14.14 5.9ZM14.96 1.99L10 1.99L10 0.97L14.96 0.97L14.96 1.99Z" />
		</g>
	</g>
</svg>
